img/icon-btn-play.svg

<svg width="30" height="30" viewBox="0 0 30 30" fill="none" xmlns="http://www.w3.org/2000/svg">
<path fill-rule="evenodd" clip-rule="evenodd" d="M13.8729 0.0174501C13.7599 0.0305864 13.4167 0.0699367 13.1101 0.104947C8.46721 0.634857 4.17751 3.5435 1.82346 7.75797C0.963743 9.29703 0.340435 11.2094 0.0758673 13.1195C-0.0252891 13.8499 -0.0252891 16.1424 0.0758673 16.8728C0.694775 21.3409 3.07882 25.136 6.80247 27.5804C11.3573 30.5705 17.3255 30.8075 22.1461 28.1898C22.8822 27.7902 23.049 27.6573 23.1963 27.3531C23.4496 26.8301 23.2847 26.2183 22.7982 25.8757C22.5879 25.7277 22.494 25.7007 22.1866 25.6998C21.9614 25.6991 21.7565 25.7349 21.6474 25.7938C20.6627 26.3253 20.264 26.5207 19.7111 26.7426C17.8151 27.5034 15.7796 27.7976 13.7804 27.5999C8.76822 27.1044 4.5227 23.7076 2.96469 18.9466C2.09741 16.2963 2.09735 13.6935 2.96452 11.0457C4.21994 7.21205 7.20692 4.23069 11.0512 2.97424C13.686 2.11305 16.2974 2.11475 18.9402 2.97934C21.8082 3.91753 24.1798 5.79872 25.8124 8.43033C26.7644 9.96481 27.413 11.9172 27.6013 13.8148C27.8695 16.5173 27.1916 19.33 25.6914 21.7402C25.3611 22.2708 25.3446 22.3155 25.3443 22.6785C25.3438 23.1359 25.4938 23.4224 25.8602 23.6648C26.1866 23.8806 26.7607 23.8897 27.0913 23.6842C27.4434 23.4655 28.1613 22.3004 28.7139 21.051C31.464 14.8332 29.7013 7.57482 24.4051 3.30857C22.2715 1.58988 19.8982 0.557212 17.1 0.130047C16.5151 0.0407319 14.3293 -0.0355057 13.8729 0.0174501ZM11.8206 9.22572C10.9771 9.45226 10.3109 10.1266 10.0908 10.9767C9.95622 11.4965 9.95569 18.4927 10.0902 19.0156C10.2775 19.7438 10.8876 20.4288 11.5821 20.6906C12.0634 20.8721 12.7011 20.8985 13.1514 20.7555C13.3773 20.6838 14.7022 19.9536 16.6426 18.8313C19.1242 17.396 19.8339 16.959 20.0805 16.7142C21.0192 15.7826 21.0192 14.2097 20.0805 13.2781C19.8339 13.0333 19.1242 12.5963 16.6426 11.161C14.7011 10.0381 13.381 9.31052 13.1608 9.24202C12.7425 9.11189 12.2661 9.10608 11.8206 9.22572ZM15.4045 13.1547C16.9986 14.0771 18.3415 14.8688 18.3888 14.914C18.4642 14.9861 18.4642 15.0061 18.3888 15.078C18.2076 15.2507 12.4958 18.5168 12.4235 18.4891C12.3622 18.4655 12.3473 17.7844 12.3473 15.0078C12.3473 13.1091 12.3649 11.5381 12.3864 11.5166C12.4079 11.4951 12.4437 11.4775 12.4659 11.4775C12.4881 11.4775 13.8105 12.2322 15.4045 13.1547Z" fill="#06FF79"/>
</svg>

<svg width="30" height="30" fill="none" xmlns="http://www.w3.org/2000/svg"><path fill-rule="evenodd" clip-rule="evenodd" d="M13.873.017l-.763.088C8.467.635 4.178 3.543 1.823 7.758.963 9.297.34 11.209.076 13.12c-.101.73-.101 3.022 0 3.753.619 4.468 3.003 8.263 6.726 10.707 4.555 2.99 10.524 3.228 15.344.61.736-.4.903-.533 1.05-.837a1.168 1.168 0 00-.398-1.477c-.21-.148-.304-.175-.611-.176-.226 0-.43.035-.54.094-.984.531-1.383.727-1.936.949a12.604 12.604 0 01-5.93.857c-5.013-.496-9.258-3.892-10.816-8.653-.868-2.65-.868-5.253 0-7.901a12.597 12.597 0 018.086-8.072c2.635-.861 5.246-.86 7.89.005 2.867.939 5.239 2.82 6.871 5.451.952 1.535 1.601 3.487 1.79 5.385.267 2.702-.41 5.515-1.91 7.925-.33.53-.347.576-.348.939 0 .457.15.743.516.986.327.216.9.225 1.231.02.352-.22 1.07-1.385 1.623-2.634a14.973 14.973 0 00-4.309-17.742C22.271 1.589 19.898.557 17.1.13c-.585-.09-2.77-.166-3.227-.113zM11.82 9.226c-.844.226-1.51.9-1.73 1.75-.135.52-.135 7.517 0 8.04.187.728.797 1.413 1.491 1.675.481.181 1.12.207 1.57.065.225-.072 1.55-.802 3.49-1.925 2.482-1.435 3.192-1.872 3.439-2.117.938-.931.938-2.504 0-3.436-.247-.245-.957-.682-3.438-2.117-1.942-1.123-3.262-1.85-3.482-1.919a2.44 2.44 0 00-1.34-.016zm3.584 3.929c1.594.922 2.937 1.714 2.984 1.759.075.072.075.092 0 .164-.181.173-5.893 3.439-5.965 3.411-.062-.024-.077-.705-.077-3.481 0-1.899.018-3.47.04-3.491a.136.136 0 01.079-.04c.022 0 1.345.755 2.939 1.678z" fill="#06FF79"/></svg>
